src/pos-icons/arrow-left-thick.svg

<svg height="24" viewBox="0 0 24 24" width="24" xmlns="http://www.w3.org/2000/svg"><path d="m20 10v4h-9l3.5 3.5-2.42 2.42-7.92-7.92 7.92-7.92 2.42 2.42-3.5 3.5z"/></svg>

<?xml version="1.0" encoding="UTF-8"?><!DOCTYPE svg PUBLIC "-//W3C//DTD SVG 1.1//EN" "http://www.w3.org/Graphics/SVG/1.1/DTD/svg11.dtd"><svg xmlns="http://www.w3.org/2000/svg" xmlns:xlink="http://www.w3.org/1999/xlink" version="1.1" id="mdi-arrow-left-thick" width="24" height="24" viewBox="0 0 24 24"><path d="M20,10V14H11L14.5,17.5L12.08,19.92L4.16,12L12.08,4.08L14.5,6.5L11,10H20Z" /></svg>
